fs/calendar_add_28_filled.svg

<svg viewBox="0 0 28 28" fill="none" xmlns="http://www.w3.org/2000/svg" height="1em" width="1em">
  <path d="M25 14.4995V9.5H3V21.75C3 23.5449 4.45507 25 6.25 25H14.4995C13.5579 23.7465 13 22.1884 13 20.5C13 16.3579 16.3579 13 20.5 13C22.1884 13 23.7465 13.5579 25 14.4995ZM25 6.25C25 4.45507 23.5449 3 21.75 3H6.25C4.45507 3 3 4.45507 3 6.25V8H25V6.25ZM27 20.5C27 24.0899 24.0899 27 20.5 27C16.9101 27 14 24.0899 14 20.5C14 16.9101 16.9101 14 20.5 14C24.0899 14 27 16.9101 27 20.5ZM21 16.5C21 16.2239 20.7761 16 20.5 16C20.2239 16 20 16.2239 20 16.5V20H16.5C16.2239 20 16 20.2239 16 20.5C16 20.7761 16.2239 21 16.5 21H20V24.5C20 24.7761 20.2239 25 20.5 25C20.7761 25 21 24.7761 21 24.5V21H24.5C24.7761 21 25 20.7761 25 20.5C25 20.2239 24.7761 20 24.5 20H21V16.5Z" fill="#212121"/>
</svg>

<svg viewBox="0 0 28 28" fill="none" xmlns="http://www.w3.org/2000/svg" height="1em" width="1em">
  <path d="M25 14.5v-5H3v12.25A3.25 3.25 0 0 0 6.25 25h8.25A7.5 7.5 0 0 1 25 14.5Zm0-8.25A3.25 3.25 0 0 0 21.75 3H6.25A3.25 3.25 0 0 0 3 6.25V8h22V6.25Zm2 14.25a6.5 6.5 0 1 1-13 0 6.5 6.5 0 0 1 13 0Zm-6-4a.5.5 0 0 0-1 0V20h-3.5a.5.5 0 0 0 0 1H20v3.5a.5.5 0 0 0 1 0V21h3.5a.5.5 0 0 0 0-1H21v-3.5Z" fill="#212121"/>
</svg>
